X:1
T:Christmas Joy
T:William Edie Marks, 1911
T:Christmas Joy
T:Public Domain
T:Public Domain
T:Public Domain
C:William Edie Marks, 1911
Z:Public Domain
%%score ( 1 2 ) ( 3 4 )
L:1/8
M:6/4
K:Eb
V:1 treble 
V:2 treble 
V:3 bass 
V:4 bass 
V:1
 [EG]2 [EG]2 [FA]2 [Ac]2 [GB]2 [EG]2 | E2 E2 [EF]2 [EA]2 [EG]2 [EF]2 | E6 [B,B]6 | %3
w: 1.~Glad hearts are sing- ing, For|Christ- mas is bring- ing us|joy! Je-|
w: 2.~Hail to the Strang- er Of|Beth- le- hem’s man- ger, oh,|joy! Great|
w: 3.~An- gels are sing- kng, And|Christ- mas is bring- ig us|joy! In|
 [B,D]6- [B,D]4 z2 | [DF]2 [DF]2 [EG]2 [FA]2 [EG]2 [DF]2 | [EG]2 [EG]2 [FA]2 [GB]2 [Gc]2 [Ge]2 | %6
w: from *|Heav- en To mor- tals is|giv- en, oh, joy, joy, joy!|
w: God’s *|fa- vor To send us a|Sav- ior, oh, joy, joy, joy!|
w: glad *|mea- sure We join with great|plea- sure, oh, joy, joy, joy!|
 [Fd]6 [Fc]6 | [Fd-]6 [Ad]4 z2 | [Ge]2 [Ge]2 [Ge]2 [Ad]2 [Ae]2 [Ac]2 | [GB]6 [EG]6 | %10
w: Give un-|to Him|a- dor- a- tion, Mor- tals,|your best|
w: With us|He still|is re- main- ing, No- thing|His love|
w: Sing of|the joys|of sal- va- tion, Cheer those|whom trou-|
 [GB]2 [Ac]2 [GB]2 [EG]2 [DA]2 [EB]2 | [Ec]6- [Ec]4 z2 | [Ac]2 [A=B]2 [Ac]2 [Ae]2 [Ad]2 [Ac]2 | %13
w: songs em- ploy; Per- fect sal-|va- *|tion He of- fers each na-|
w: can de- stroy; King He is|reign- *|ing, And we are ob- tain-|
w: bles an- noy; Send to each|na- *|tion The great pro- cla- ma-|
 [GB]2 [^F=A]2 [GB]2 [_Ac]2 [Ad]2 [Ae]2 | [EG]6 [DF]6 | E6- E4 z2 |:"^Refrain" [Ge]6 [EG]6 | %17
w: tion, oh, joy, joy, joy! Joy,|joy, joy!|Joy, *|joy! An-|
w: ing great joy, joy, joy! *||||
w: tion of joy, joy, joy! *||||
 [GB]6- [GB]4 z2 | [=Ec]6 [EG]6 | [FA]6- [FA]4 z2 | [FA]2 [DF]2 [EG]2 [FA]2 [EG]2 [DF]2 | %21
w: gels *|are sing-|ing *|And Christ- mas is bring- ing|
w: ||||
w: ||||
 [EG]2 [EG]2 [FA]2 [GB]2 [Gc]2 [Ge]2 | [Fd]6 [Fc]6 | [Fd]6- [Fd]4 z2 :| %24
w: us joy, joy, joy! Mer- ry|bells ring-|ing, *|
w: |||
w: |||
 [FA]2 [DF]2 [EG]2 [FA]2 [EG]2 [DF]2 | [EG]2 [FA]2 [GB]2 [Ac]2 [Ad]2 [Ae]2 | [EG]6 [DF]6 | %27
w: And Christ- mas is bring- ing|us joy, joy, joy! * *||
w: |||
w: |||
 E6- E4 z2 |] %28
w: |
w: |
w: |
V:2
 x12 | E2 E2 x8 | E6 x6 | x12 | x12 | x12 | x12 | x12 | x12 | x12 | x12 | x12 | x12 | x12 | x12 | %15
w: |joy, joy,|sus|||||||||||||
w: |joy, joy,|is|||||||||||||
w: |joy, joy,|the|||||||||||||
 E6- E4 x2 |: x12 | x12 | x12 | x12 | x12 | x12 | x12 | x12 :| x12 | x12 | x12 | E6- E4 x2 |] %28
w: joy, *|||||||||||||
w: |||||||||||||
w: |||||||||||||
V:3
 [E,B,]2 [E,B,]2 [E,B,]2 [E,E]2 [E,E]2 [E,B,]2 | [E,G,]2 [E,G,]2 [E,A,]2 [E,C]2 [E,B,]2 [E,A,]2 | %2
w: ~ ~ ~ ~ ~ ~|~ ~ ~ ~ ~ ~|
 [E,G,]6 [E,G,]6 | [F,A,]6- [F,A,]4 z2 | [B,,B,]2 [B,,B,]2 [B,,B,]2 [B,,B,]2 [B,,B,]2 [B,,B,]2 | %5
w: ~ ~|~ *|~ ~ ~ ~ ~ ~|
 [E,B,]2 [E,B,]2 [E,B,]2 [E,E]2 [E,E]2 [E,B,]2 | [F,B,]6 [F,=A,]6 | z2 C2 B,2- A,2 G,2 F,2 | %8
w: ~ ~ ~ ~ ~ ~|~ ~|~ ~ ~ ~ ~|
 [E,B,]2 [E,B,]2 [E,B,]2 [E,=B,]2 [E,C]2 [E,E]2 | [E,E]6 [E,B,]6 | %10
w: ~ ~ ~ ~ ~ ~|~ ~|
 [E,E]2 [E,E]2 [E,E]2 [E,B,]2 [F,B,]2 [G,B,]2 | A,6- A,4 z2 | %12
w: ~ ~ ~ ~ ~ ~|~ *|
 [A,E]2 [A,D]2 [A,E]2 [A,C]2 [A,C]2 [A,E]2 | [E,E]2 [E,E]2 [E,E]2 [A,E]2 [A,D]2 [A,C]2 | %14
w: ~ ~ ~ ~ ~ ~|~ ~ ~ ~ ~ ~|
 B,6 [B,,A,]6 | [E,G,]6- [E,G,]4 z2 |: [E,B,]6 [E,B,]6 | E,2 G,2 F,2 E,2 D,2 _D,2 | %18
w: ~ Joy,|Christ- *|mas is|glo- ri- ous! Joy joy, grand|
 [C,G,]6 [C,C]6 | F,2 A,2 G,2 F,2 D,2 C,2 | [B,,B,]2 [B,,B,]2 [B,,B,]2 [B,,B,]2 [B,,B,]2 [B,,B,]2 | %21
w: vic- to-|ri- ous! * * * *||
 [E,B,]2 [E,B,]2 [E,B,]2 [E,E]2 [E,E]2 [E,B,]2 | [F,B,]6 [F,=A,]6 | z2 C2 B,2- A,2 G,2 F,2 :| %24
w: |||
 [B,,B,]2 [B,,B,]2 [B,,B,]2 [B,,B,]2 [B,,B,]2 [B,,B,]2 | %25
w: |
 [E,B,]2 [E,B,]2 [E,E]2 [A,E]2 [A,D]2 [A,C]2 | B,6 [B,,A,]6 | [E,G,]6- [E,G,]4 z2 |] %28
w: |||
V:4
 x12 | x12 | x12 | x12 | x12 | x12 | x12 | B,6 B,4 x2 | x12 | x12 | x12 | A,6- A,4 x2 | x12 | x12 | %14
w: |||||||||||~ *|||
 B,6 x6 | x12 |: x12 | B,6- B,4 x2 | x12 | C6- C4 x2 | x12 | x12 | x12 | B,6 B,4 x2 :| x12 | x12 | %26
w: joy,|||and *|||||||||
 B,6 x6 | x12 |] %28
w: ||

